cy/server-solid.svg

<svg viewBox="0 0 36 36" xmlns="http://www.w3.org/2000/svg" height="1em" width="1em">
  <path class="clr-i-solid clr-i-solid-path-1" d="M26.5 2h-17C8.7 2 8 2.7 8 3.5V34h20V3.5c0-.8-.7-1.5-1.5-1.5zM18 30.5c-1.5 0-2.8-1.2-2.8-2.8S16.5 25 18 25s2.8 1.2 2.8 2.8-1.3 2.7-2.8 2.7zm5-7.9H13V21h10v1.6zm1-11H12V10h12v1.6zm0-4H12V6h12v1.6z"/>
  <circle class="clr-i-solid clr-i-solid-path-2" cx="18" cy="27.8" r="1.2"/>
  <path fill="none" d="M0 0h36v36H0z"/>
</svg>

<svg version="1.1" viewBox="0 0 36 36" preserveAspectRatio="xMidYMid meet" xmlns="http://www.w3.org/2000/svg" height="1em" width="1em">
  <path class="clr-i-solid clr-i-solid-path-1" d="M26.5,2h-17C8.7,2,8,2.7,8,3.5V34h20V3.5C28,2.7,27.3,2,26.5,2z M18,30.5c-1.5,0-2.8-1.2-2.8-2.8S16.5,25,18,25s2.8,1.2,2.8,2.8S19.5,30.5,18,30.5z M23,22.6H13V21h10V22.6z M24,11.6H12V10h12V11.6z M24,7.6H12V6h12V7.6z"/>
  <circle class="clr-i-solid clr-i-solid-path-2" cx="18" cy="27.8" r="1.2"/>
  <rect x="0" y="0" width="36" height="36" fill-opacity="0"/>
</svg>
